hero/outline/information-circle.svg

<svg width="24" height="24" viewBox="0 0 24 24" fill="none" xmlns="http://www.w3.org/2000/svg">
<path d="M11.25 11.25L11.2915 11.2293C11.8646 10.9427 12.5099 11.4603 12.3545 12.082L11.6455 14.918C11.4901 15.5397 12.1354 16.0573 12.7085 15.7707L12.75 15.75M21 12C21 16.9706 16.9706 21 12 21C7.02944 21 3 16.9706 3 12C3 7.02944 7.02944 3 12 3C16.9706 3 21 7.02944 21 12ZM12 8.25H12.0075V8.2575H12V8.25Z" stroke="#0F172A" stroke-width="1.5" stroke-linecap="round" stroke-linejoin="round"/>
</svg>

<svg viewBox="0 0 24 24" xmlns="http://www.w3.org/2000/svg"><path fill="none" stroke="#000" stroke-linecap="round" stroke-linejoin="round" stroke-width="1.5" d="M11.25 11.25l.04-.02v0c.37-.19.82-.04 1 .33 .07.15.1.34.05.51l-.71 2.83 -.001 0c-.11.4.14.8.54.9 .17.04.35.02.51-.06l.04-.03m8.25-3.75v0c0 4.97-4.03 9-9 9 -4.98 0-9-4.03-9-9v0c0-4.98 4.02-9 9-9 4.97 0 9 4.02 9 9Zm-9-3.75h0v0h-.01V8.2Z"/></svg>
